X:1
T:DELAWARE -- HORNPIPE
B:Cole's 1000 Fiddle Tunes
R:hornpipe
Z:Bob Puckette  2003-3-7
M:2/4
L:1/16
K:G
(udc)|BGBd BdBd|gfge dBGB|"4"ecdB cABG|E2A2A2 (dc)|
BGBd BGBd|gfge dGBG|"4"ecdB cABG|D2G2G2 :|
|:ug2|dgBg dgBg|dgba gfed|eaca eaca|e2(ag) fed^c|
dgBd dgBd|dgba gfed|eaba gfdf|a2a2a2:|
